Source/HTML/PIC/info.svg

<svg width="18" height="18" viewBox="0 0 18 18" fill="none" xmlns="http://www.w3.org/2000/svg">
<path fill-rule="evenodd" clip-rule="evenodd" d="M3 1H15C16.1046 1 17 1.89543 17 3V15C17 16.1046 16.1046 17 15 17H3C1.89543 17 1 16.1046 1 15V3C1 1.89543 1.89543 1 3 1ZM0 3C0 1.34315 1.34315 0 3 0H15C16.6569 0 18 1.34315 18 3V15C18 16.6569 16.6569 18 15 18H3C1.34315 18 0 16.6569 0 15V3ZM8.16602 14H9.82715V6.60352H8.16602V14ZM8.30273 4.04688C8.14323 4.21549 8.06348 4.42741 8.06348 4.68262C8.06348 4.93327 8.14323 5.1429 8.30273 5.31152C8.4668 5.47559 8.69922 5.55762 9 5.55762C9.30078 5.55762 9.5332 5.47559 9.69727 5.31152C9.86133 5.1429 9.94336 4.93327 9.94336 4.68262C9.94336 4.42741 9.86133 4.21549 9.69727 4.04688C9.5332 3.87826 9.30078 3.79395 9 3.79395C8.69922 3.79395 8.4668 3.87826 8.30273 4.04688Z" fill="#445368"/>
</svg>

<svg width="18" height="18" fill="none" xmlns="http://www.w3.org/2000/svg"><path fill-rule="evenodd" clip-rule="evenodd" d="M3 1h12a2 2 0 012 2v12a2 2 0 01-2 2H3a2 2 0 01-2-2V3a2 2 0 012-2zM0 3a3 3 0 013-3h12a3 3 0 013 3v12a3 3 0 01-3 3H3a3 3 0 01-3-3V3zm8.166 11h1.661V6.604H8.166V14zm.137-9.953a.889.889 0 00-.24.636c0 .25.08.46.24.629.164.164.396.246.697.246.3 0 .533-.082.697-.246a.866.866 0 00.246-.63.875.875 0 00-.246-.635c-.164-.169-.396-.253-.697-.253-.3 0-.533.084-.697.253z" fill="#445368"/></svg>
